public/images/logos/nextjs.svg

<svg width="28" height="28" viewBox="0 0 28 28" fill="none" xmlns="http://www.w3.org/2000/svg">
<path d="M13.0842 0.0218101C13.024 0.0272784 12.8326 0.0464171 12.6604 0.0600877C8.68773 0.418256 4.96661 2.5618 2.60981 5.8564C1.29743 7.68825 0.458062 9.76617 0.140906 11.9671C0.0288073 12.7354 0.0151367 12.9623 0.0151367 14.004C0.0151367 15.0457 0.0288073 15.2727 0.140906 16.041C0.900988 21.2932 4.63851 25.706 9.70755 27.341C10.6153 27.6336 11.5722 27.8332 12.6604 27.9535C13.0842 27.9999 14.916 27.9999 15.3398 27.9535C17.2181 27.7457 18.8094 27.2809 20.3788 26.4798C20.6194 26.3567 20.6659 26.3239 20.633 26.2966C20.6112 26.2802 19.5859 24.9049 18.3555 23.2426L16.119 20.2214L13.3166 16.0738C11.7745 13.7935 10.5059 11.9289 10.495 11.9289C10.484 11.9261 10.4731 13.7689 10.4676 16.0191C10.4594 19.9589 10.4567 20.1175 10.4075 20.2105C10.3364 20.3444 10.2817 20.3991 10.1669 20.4593C10.0794 20.503 10.0028 20.5112 9.58998 20.5112H9.11698L8.99121 20.4319C8.90919 20.38 8.84904 20.3116 8.80803 20.2323L8.75061 20.1093L8.75608 14.6274L8.76428 9.14279L8.84904 9.03616C8.89279 8.97875 8.98575 8.90493 9.05136 8.86938C9.16346 8.8147 9.20721 8.80923 9.68021 8.80923C10.238 8.80923 10.3309 8.83111 10.4758 8.98968C10.5168 9.03343 12.0343 11.3191 13.8497 14.0724C15.6652 16.8256 18.1477 20.585 19.3672 22.4306L21.5818 25.7853L21.6939 25.7115C22.6864 25.0662 23.7363 24.1476 24.5674 23.1906C26.3364 21.1592 27.4765 18.6821 27.8593 16.041C27.9714 15.2727 27.9851 15.0457 27.9851 14.004C27.9851 12.9623 27.9714 12.7354 27.8593 11.9671C27.0992 6.71491 23.3617 2.30206 18.2927 0.66706C17.3986 0.377244 16.4471 0.177654 15.3808 0.0573535C15.1184 0.0300125 13.3111 -6.27246e-05 13.0842 0.0218101ZM18.8094 8.48114C18.9406 8.54676 19.0473 8.67253 19.0855 8.80376C19.1074 8.87485 19.1129 10.395 19.1074 13.8209L19.0992 18.7368L18.2325 17.408L17.3631 16.0792V12.5057C17.3631 10.1954 17.374 8.89672 17.3904 8.83384C17.4341 8.68073 17.5298 8.56043 17.6611 8.48934C17.7732 8.43193 17.8142 8.42646 18.2434 8.42646C18.6481 8.42646 18.7192 8.43193 18.8094 8.48114Z" fill="black"/>
<path d="M21.445 25.8455C21.3494 25.9057 21.3193 25.9467 21.404 25.9002C21.4642 25.8646 21.5626 25.7908 21.5462 25.7881C21.538 25.7881 21.4915 25.8154 21.445 25.8455ZM21.2564 25.9685C21.2072 26.0068 21.2072 26.0095 21.2673 25.9795C21.3001 25.9631 21.3275 25.9439 21.3275 25.9385C21.3275 25.9166 21.3138 25.9221 21.2564 25.9685ZM21.1197 26.0506C21.0705 26.0888 21.0705 26.0916 21.1306 26.0615C21.1634 26.0451 21.1908 26.026 21.1908 26.0205C21.1908 25.9986 21.1771 26.0041 21.1197 26.0506ZM20.983 26.1326C20.9338 26.1709 20.9338 26.1736 20.9939 26.1435C21.0267 26.1271 21.0541 26.108 21.0541 26.1025C21.0541 26.0806 21.0404 26.0861 20.983 26.1326ZM20.7752 26.2419C20.6713 26.2966 20.6768 26.3185 20.7807 26.2666C20.8271 26.2419 20.8627 26.2173 20.8627 26.2119C20.8627 26.1927 20.86 26.1955 20.7752 26.2419Z" fill="black"/>
</svg>

<svg xmlns="http://www.w3.org/2000/svg" width="28" height="28" fill="#000" xmlns:v="https://vecta.io/nano"><path d="M13.084.022L12.66.06C8.688.418 4.967 2.562 2.61 5.856 1.297 7.688.458 9.766.141 11.967c-.112.768-.126.995-.126 2.037s.014 1.269.126 2.037c.76 5.252 4.498 9.665 9.567 11.3.908.293 1.865.492 2.953.612.424.046 2.256.046 2.679 0 1.878-.208 3.47-.673 5.039-1.474.241-.123.287-.156.254-.183-.022-.016-1.047-1.392-2.277-3.054l-2.236-3.021-2.802-4.148-2.822-4.145c-.011-.003-.022 1.84-.027 4.09l-.06 4.191c-.071.134-.126.189-.241.249-.088.044-.164.052-.577.052h-.473l-.126-.079a.51.51 0 0 1-.183-.2l-.057-.123.005-5.482.008-5.485.085-.107a.75.75 0 0 1 .202-.167c.112-.055.156-.06.629-.06.558 0 .651.022.796.18.041.044 1.559 2.329 3.374 5.083l5.518 8.358 2.215 3.355.112-.074c.992-.645 2.042-1.564 2.874-2.521 1.769-2.031 2.909-4.509 3.292-7.15.112-.768.126-.995.126-2.037s-.014-1.269-.126-2.037c-.76-5.252-4.498-9.665-9.567-11.3-.894-.29-1.846-.489-2.912-.61a38.76 38.76 0 0 0-2.299-.032zm5.725 8.459a.55.55 0 0 1 .276.323c.022.071.027 1.591.022 5.017l-.008 4.916-.867-1.329-.869-1.329v-3.574l.027-3.672c.044-.153.139-.273.271-.344.112-.057.153-.063.582-.063.405 0 .476.005.566.055zm2.636 17.365c-.096.06-.126.101-.041.055.06-.036.159-.109.142-.112a.56.56 0 0 0-.101.057zm-.189.123c-.049.038-.049.041.011.011.033-.016.06-.036.06-.041 0-.022-.014-.016-.071.03zm-.137.082c-.049.038-.049.041.011.011.033-.016.06-.035.06-.041 0-.022-.014-.016-.071.03zm-.137.082c-.049.038-.049.041.011.011.033-.016.06-.035.06-.041 0-.022-.014-.016-.071.03zm-.208.109c-.104.055-.098.077.005.025.046-.025.082-.049.082-.055 0-.019-.003-.016-.087.03z"/></svg>
